X: 49031
T: Riding Through the Dark
C: Lindsey Ibbotson
R: strathspey
B: RSCDS 49-3
Z: 2015 by John Chambers <jc:trillian.mit.edu>
N: Tune for the dance Midsummer Common
M: 4/4
L: 1/8
K: Gm
D2 |\
"Gm"G>A B>d "F"c<A (3FGA | "Eb"B>A G<F "Dm"D2 DF |\
"Gm"G>A B>d "F"c<A B>c | "Gm7"d>B "Cm7"c<d "F"f3 f |
"Gm"g>a b>a "Bb"g<f d>B | "Cm7"c>B A<G "D7"^F3 D |\
"Gm"G>A B>d "F"c<A (3=FGA | "Eb"B>A "Dm7"G<F "Gm"G2 ||
D2 |\
"Gm"G>B G<D "D/Gm"G>B G<D | "F"F>D C>A, "A/F"C<F F2 |\
"Gm"G>B G<D "D/Gm"G<B B>c | "BB7"d>c "Eb"B<G "D7"A2 AD |
"Gm"G>B G<D "D/Gm"G>B G<D | "F"F>D C>A, "A/F"C<F (3FDF |\
"Gm"G>A B>d "F"c<A "Dm7"(3FGA | "Eb7"B>A "Dm7"G<F "Gm"G2 |]
